!!!COM: Bach, Johann Sebastian
!!!CDT: 1685/3//-1750/7/28/
!!!OTL@@DE: Von Gott will ich nicht lassen
!!!AGN: 4-Part Chorale
!!!SCT: BH 191
!!!SCT: BWV 73
**harm	**root	**kern	**kern	**kern	**kern
!	!	!bass	!tenor	!alto	!soprno
*	*Iorgan	*Iorgan	*Iorgan	*Iorgan	*Iorgan
*	*	*clefF4	*clefF4	*clefG2	*clefG2
*k[b-e-a-]	*k[b-e-a-]	*k[b-e-a-]	*k[b-e-a-]	*k[b-e-a-]	*k[b-e-a-]
*c:	*c:	*c:	*c:	*c:	*c:
*M4/4	*M4/4	*M4/4	*M4/4	*M4/4	*M4/4
*met(c)	*met(c)	*met(c)	*met(c)	*met(c)	*met(c)
*MM60	*MM60	*MM60	*MM60	*MM60	*MM60
*>[A,A,B]	*>[A,A,B]	*>[A,A,B]	*>[A,A,B]	*>[A,A,B]	*>[A,A,B]
*>A	*>A	*>A	*>A	*>A	*>A
i	4AA	4C	4c	4e-	4g
=1	=1	=1	=1	=1	=1
i	4AA	4c	4e-	4g	4cc
Vb	4EE	4B	4d	4g	4dd
i	4AA	4c	4c	4g	4ee-
Vb/-VII	4DD	4A	4c	4f	4ff
=2	=2	=2	=2	=2	=2
-VII	4GG	4B-	4B-	8f	2dd
.	.	.	.	8g	.
Vb/V	4BB	4F#	4A	4a	.
v;	4EE;	4G;	4d;	4g;	4b-;
III	4CC	4E-	4e-	4g	4b-
=3	=3	=3	=3	=3	=3
VI	4FF	4A-	4c	4e-	4cc
iv	4DD	4F	4A-	4f	4cc
V7b	2EE	4BB	4G	8f	4dd
.	.	.	.	8a-	.
.	.	4BB	4G	8g	4dd
.	.	.	.	8f	.
=4	=4	=4	=4	=4	=4
i;	2.AA;	2.C;	2.c;	2.e-;	2.g;
=:|!	=:|!	=:|!	=:|!	=:|!	=:|!
*>B	*>B	*>B	*>B	*>B	*>B
i	4AA	4c	4e-	4cc	4gg
=5	=5	=5	=5	=5	=5
iv	4DD	4A-	4f	4cc	4ff
iv7	4DD	4F	4a-	4cc	4ee-
IIIc	4CC	4B-	4g	4b-	4ee-
-VII	4GG	4BB-	4f	4b-	4dd
=6	=6	=6	=6	=6	=6
III;	2.CC;	2.E-;	2.g;	2.b-;	2.ee-;
-VII	4GG	4B-	4f	4b-	4dd
!!linebreak: 2
=7	=7	=7	=7	=7	=7
IIIb	4CC	4G	4.e-	4b-	4ee-
iiob	4BB	4F	.	4a-	4ff
.	.	.	[8d	.	.
III	4CC	4E-	8d]	4b-	4gg
.	.	.	8B-	.	.
i	4AA	4C	4e-	8cc	4gg
.	.	.	.	8b-	.
=8	=8	=8	=8	=8	=8
V7/-VII	2DD	2F	4e-	8a	2ff
.	.	.	.	8g	.
.	.	.	8d	4a	.
.	.	.	8c	.	.
-VII;	4GG;	4BB-;	4B-;	4f;	4dd;
-VII	4GG	4B-	4f	4b-	4dd
=9	=9	=9	=9	=9	=9
IIIb	4CC	4G	4e-	4b-	4ee-
III7	4CC	4E-	4B-	4g	4dd
VI	4FF	4A-	8c	4e-	4cc
.	.	.	8d	.	.
VI7	4FF	4G	4e-	[4a-	4cc
=10	=10	=10	=10	=10	=10
iiob	4BB	4F	4f	8a-]	4dd
.	.	.	.	8g	.
vii7/V	4DD#	4F#	4e-	4a	4cc
v;	4EE;	4G;	4d;	4g;	4b-;
V7/III	4GG	4D	4B-	4f	4a-
=11	=11	=11	=11	=11	=11
III	4CC	4E-	4B-	4e-	4g
ivb	4DD	4A-	8c	4f	4cc
.	.	.	8d	.	.
ic	4AA	4G	8e-	4g	4cc
.	.	.	16d	.	.
.	.	.	16c	.	.
V	4EE	4GG	4d	4g	4b
=12	=12	=12	=12	=12	=12
I;	2.AA;	2.C;	2.e;	2.g;	2.cc;
==	==	==	==	==	==
*-	*-	*-	*-	*-	*-
!!chor2scor: -l 2 -s 0.6 -o %b.pmx
!!!YEC: Copyright 2001 by Craig Stuart Sapp
!!!license: GNU General Public License (http://www.gnu.org/copyleft/gpl.html)
!!!SMA: 371 Bach Chorales, edited by Ludwig Erk, C.F. Peters
!!!PDT: 1850, 1865
!!!ONB: Harmony and Root analysis done manually by Craig Sapp
